X: 128
T:Go Mauve
M:4/4
L:1/8
C:Ian Luff
R:Schottische
D:Blowzabella - 'Vanilla
K:Em
EGBE E2GB|d2cB A4|AGFE D2FG|FEDE FGE2|EGBE E2GB|d2cB A4|AGFE D2FG|1FED2
E4:|2FED2 E2D2|
:E2E2 EFGE|F2F2 FGAF|G2G2 GBAG|F2F2 FAGF|E2E2 EFGE|F2F2 FGAF|G2G2 GBAG|1
F4 FAFG:|2A8||
